packages/foundations/assets/icons/functional/images/audio & video/volume_down_12.svg

<svg width="12" height="12" viewBox="0 0 12 12" fill="none" xmlns="http://www.w3.org/2000/svg">
<g clip-path="url(#clip0_231_102)">
<path fill-rule="evenodd" clip-rule="evenodd" d="M6.613 2.38794C6.953 2.38794 7.217 2.66994 7.217 2.98994V9.00994C7.21795 9.08943 7.20295 9.1683 7.17291 9.24189C7.14286 9.31549 7.09838 9.38232 7.04207 9.43843C6.98577 9.49455 6.91879 9.53882 6.8451 9.56862C6.7714 9.59842 6.69248 9.61315 6.613 9.61194C6.49988 9.60958 6.38943 9.57714 6.293 9.51794L4.633 8.40794H4.199C3.199 8.40794 2.388 7.59894 2.388 6.62094V5.41694C2.388 4.41994 3.199 3.59194 4.198 3.59194H4.633L6.293 2.50094C6.38376 2.42806 6.4966 2.38821 6.613 2.38794ZM6.009 4.11794L5.142 4.70194C5.03944 4.76387 4.92181 4.79639 4.802 4.79594H4.199C4.0394 4.79672 3.88652 4.86034 3.77348 4.97301C3.66043 5.08568 3.59631 5.23834 3.595 5.39794V6.60194C3.595 6.94094 3.859 7.20394 4.199 7.20394H4.802C4.92359 7.20954 5.04125 7.24864 5.142 7.31694L6.009 7.88094V4.11994V4.11794ZM7.801 7.20394C7.801 6.60194 8.405 6.60194 8.405 6.01894C8.405 5.41694 7.801 5.41694 7.801 4.81494C7.801 4.51394 8.103 4.19394 8.405 4.19394C9.008 4.19394 9.612 5.09694 9.612 6.01894C9.612 6.92194 9.008 7.82494 8.405 7.82494C8.103 7.82494 7.801 7.52394 7.801 7.20394Z" fill="#1A1C1F"/>
</g>
<defs>
<clipPath id="clip0_231_102">
<rect width="12" height="12" fill="white"/>
</clipPath>
</defs>
</svg>

<svg xmlns="http://www.w3.org/2000/svg" width="12" height="12" fill="none"><g clip-path="url(#a)"><path fill="#1A1C1F" fill-rule="evenodd" d="M6.613 2.388c.34 0 .604.282.604.602v6.02a.595.595 0 0 1-.604.602.64.64 0 0 1-.32-.094l-1.66-1.11h-.434c-1 0-1.811-.81-1.811-1.787V5.417c0-.997.811-1.825 1.81-1.825h.435L6.293 2.5a.5.5 0 0 1 .32-.113m-.604 1.73-.867.584a.65.65 0 0 1-.34.094h-.603a.607.607 0 0 0-.604.602v1.204c0 .339.264.602.604.602h.603a.66.66 0 0 1 .34.113l.867.564V4.118m1.792 3.086c0-.602.604-.602.604-1.185 0-.602-.604-.602-.604-1.204 0-.301.302-.621.604-.621.603 0 1.207.903 1.207 1.825 0 .903-.604 1.806-1.207 1.806-.302 0-.604-.301-.604-.621" clip-rule="evenodd"/></g><defs><clipPath id="a"><path fill="#fff" d="M0 0h12v12H0z"/></clipPath></defs></svg>
